images/icons/speed.svg

<svg id="Layer_1" data-name="Layer 1" xmlns="http://www.w3.org/2000/svg" viewBox="0 0 64 64"><defs><style>.cls-1{fill:#99d9ea}.cls-2{fill:#681e22}.cls-4{fill:#2495b0}</style></defs><path class="cls-1" d="M13.03-3.85l54.69 54.69-87.17 32.48L13.03-3.85z"/><path class="cls-2" d="M13.62-1.14L65 50.25l-81.9 30.52L13.62-1.14m-1.18-5.42L-22 85.87l92.44-34.43-58-58z"/><path fill="none" stroke="#681e22" stroke-miterlimit="10" stroke-width="3" d="M26.5 13.37l-25 25"/><path class="cls-1" d="M64-.13H12l52 52v-52z"/><path class="cls-4" d="M25.74 62.5l25.32-25.38L76.38 62.5H25.74z"/><path class="cls-2" d="M51.06 39.25L72.77 61H29.36l21.7-21.75m0-4.25L22.12 64H80L51.06 35z"/><path class="cls-4" d="M1.5-12.26l25.38 25.33L1.5 38.39v-50.65z"/><path class="cls-2" d="M3-8.64l21.75 21.71L3 34.77V-8.64m-3-7.23V42l29-28.93L0-15.87z"/><path class="cls-2" d="M61 2.87v58H3v-58h58m3-3H0v64h64v-64z"/></svg>

<svg id="Layer_1" data-name="Layer 1" xmlns="http://www.w3.org/2000/svg" viewBox="0 0 64 64"><defs><style>.cls-1{fill:#99d9ea;}.cls-2{fill:#681e22;}.cls-3{fill:none;stroke:#681e22;stroke-miterlimit:10;stroke-width:3px;}.cls-4{fill:#2495b0;}</style></defs><title>Artboard 1</title><polygon class="cls-1" points="13.03 -3.85 67.72 50.84 -19.45 83.32 13.03 -3.85"/><path class="cls-2" d="M13.62-1.14,65,50.25-16.9,80.77,13.62-1.14M12.44-6.56-22,85.87,70.44,51.44l-58-58Z"/><line class="cls-3" x1="26.5" y1="13.37" x2="1.5" y2="38.37"/><polygon class="cls-1" points="64 -0.13 12 -0.13 64 51.87 64 -0.13"/><polygon class="cls-4" points="25.74 62.5 51.06 37.12 76.38 62.5 25.74 62.5"/><path class="cls-2" d="M51.06,39.25,72.77,61H29.36l21.7-21.75m0-4.25L22.12,64H80L51.06,35Z"/><polygon class="cls-4" points="1.5 -12.26 26.88 13.07 1.5 38.39 1.5 -12.26"/><path class="cls-2" d="M3-8.64,24.75,13.07,3,34.77V-8.64M0-15.87V42L29,13.07,0-15.87Z"/><path class="cls-2" d="M61,2.87v58H3v-58H61m3-3H0v64H64v-64Z"/></svg>
